configs/network-icons/blackfort.svg

<svg width="30" height="30" viewBox="0 0 30 30" fill="none" xmlns="http://www.w3.org/2000/svg">
<g clip-path="url(#clip0_11306_10462)">
<path d="M0.485378 13.5166C1.14142 13.5166 1.79746 13.5166 2.45414 13.5166C2.72993 13.5166 2.95315 13.7398 2.95315 14.0156C2.95315 14.6717 2.95315 15.3277 2.95315 15.9844C2.95315 16.2465 2.72993 16.4698 2.45414 16.4698C1.7981 16.4698 1.14207 16.4698 0.485378 16.4698C0.223222 16.4698 0 16.2465 0 15.9844C0 15.3283 0 14.6723 0 14.0156C0 13.7398 0.223222 13.5166 0.485378 13.5166ZM4.6059 16.3646C5.17044 16.3646 5.73434 16.3646 6.31186 16.3646C6.54806 16.3646 6.7317 16.5483 6.7317 16.7845C6.7317 17.362 6.7317 17.9259 6.7317 18.5034C6.7317 18.7396 6.54806 18.9233 6.31186 18.9233C5.73434 18.9233 5.17044 18.9233 4.6059 18.9233C4.3697 18.9233 4.17308 18.7396 4.17308 18.5034C4.17308 17.9259 4.17308 17.362 4.17308 16.7845C4.17308 16.5483 4.3697 16.3646 4.6059 16.3646ZM9.02881 17.6112C9.51419 17.6112 10.0002 17.6112 10.4856 17.6112C10.6822 17.6112 10.8529 17.7818 10.8529 17.9785C10.8529 18.4638 10.8529 18.9499 10.8529 19.4352C10.8529 19.6319 10.6822 19.7895 10.4856 19.7895C10.0002 19.7895 9.51419 19.7895 9.02881 19.7895C8.83219 19.7895 8.67451 19.6319 8.67451 19.4352C8.67451 18.9499 8.67451 18.4638 8.67451 17.9785C8.67451 17.7818 8.83219 17.6112 9.02881 17.6112ZM5.77392 3.70068C6.24632 4.16011 6.70574 4.61953 7.16517 5.07895C7.36178 5.27557 7.36178 5.59093 7.16517 5.77457C6.70574 6.24697 6.24632 6.70639 5.77392 7.16582C5.59028 7.36243 5.27492 7.36243 5.0783 7.16582C4.61888 6.70639 4.15946 6.24697 3.68706 5.77457C3.50342 5.59093 3.50342 5.27557 3.68706 5.07895C4.15946 4.61953 4.61888 4.16011 5.0783 3.70068C5.27557 3.50342 5.59028 3.50342 5.77392 3.70068ZM6.67979 8.60832C7.08665 9.01518 7.49351 9.40907 7.88739 9.81593C8.05805 9.98659 8.05805 10.2624 7.88739 10.4194C7.49351 10.8263 7.08665 11.2331 6.67979 11.627C6.50913 11.7977 6.24697 11.7977 6.07631 11.627C5.66945 11.2331 5.27557 10.8263 4.86871 10.4194C4.69804 10.2617 4.69804 9.98659 4.86871 9.81593C5.27557 9.40907 5.66945 9.01518 6.07631 8.60832C6.24632 8.43831 6.50913 8.43831 6.67979 8.60832ZM8.92369 12.6244C9.27799 12.9787 9.61931 13.32 9.96063 13.6613C10.1047 13.8054 10.1047 14.0286 9.96063 14.1733C9.61931 14.5146 9.27799 14.8559 8.92369 15.1966C8.79261 15.3407 8.55641 15.3407 8.41171 15.1966C8.07038 14.8553 7.72906 14.514 7.38839 14.1733C7.24433 14.0292 7.24433 13.806 7.38839 13.6613C7.72971 13.32 8.07103 12.9787 8.41171 12.6244C8.55641 12.4933 8.79261 12.4933 8.92369 12.6244ZM16.4698 0.485379C16.4698 1.14142 16.4698 1.79746 16.4698 2.45414C16.4698 2.72993 16.2465 2.95315 15.9844 2.95315C15.3283 2.95315 14.6723 2.95315 14.0156 2.95315C13.7398 2.95315 13.5166 2.72993 13.5166 2.45414C13.5166 1.79811 13.5166 1.14207 13.5166 0.485379C13.5166 0.223223 13.7398 0 14.0156 0C14.6717 0 15.3277 0 15.9844 0C16.2465 0 16.4698 0.222574 16.4698 0.485379ZM13.6354 4.6059C13.6354 5.17045 13.6354 5.73434 13.6354 6.31186C13.6354 6.54806 13.4387 6.7317 13.2025 6.7317C12.638 6.7317 12.0611 6.7317 11.4966 6.7317C11.2604 6.7317 11.0638 6.54806 11.0638 6.31186C11.0638 5.73434 11.0638 5.17045 11.0638 4.6059C11.0638 4.3697 11.2604 4.17308 11.4966 4.17308C12.0611 4.17308 12.638 4.17308 13.2025 4.17308C13.4381 4.17308 13.6354 4.3697 13.6354 4.6059ZM12.3752 9.02881C12.3752 9.51419 12.3752 10.0002 12.3752 10.4856C12.3752 10.6822 12.2175 10.8529 12.0209 10.8529C11.5355 10.8529 11.0495 10.8529 10.5641 10.8529C10.3675 10.8529 10.1968 10.6822 10.1968 10.4856C10.1968 10.0002 10.1968 9.51419 10.1968 9.02881C10.1968 8.83219 10.3675 8.67451 10.5641 8.67451C11.0495 8.67451 11.5355 8.67451 12.0209 8.67451C12.2175 8.67451 12.3752 8.83155 12.3752 9.02881ZM26.2993 5.77392C25.8399 6.24632 25.3675 6.70575 24.9081 7.16517C24.7115 7.36178 24.4091 7.36178 24.2124 7.16517C23.753 6.70575 23.2806 6.24632 22.8212 5.77392C22.6376 5.59028 22.6376 5.27492 22.8212 5.0783C23.2806 4.61888 23.753 4.15946 24.2124 3.70003C24.4091 3.50342 24.7115 3.50342 24.9081 3.70003C25.3675 4.15946 25.8399 4.61888 26.2993 5.0783C26.4959 5.27557 26.4959 5.59028 26.2993 5.77392ZM21.391 6.67979C20.9842 7.08665 20.5773 7.49351 20.1704 7.88739C20.0128 8.05806 19.7376 8.05806 19.567 7.88739C19.1731 7.49351 18.7662 7.08665 18.3594 6.67979C18.1887 6.50913 18.1887 6.24697 18.3594 6.07631C18.7662 5.66945 19.1731 5.27557 19.567 4.86871C19.7376 4.69805 20.0134 4.69805 20.1704 4.86871C20.5773 5.27557 20.9842 5.66945 21.391 6.07631C21.5487 6.24632 21.5487 6.50913 21.391 6.67979ZM17.362 8.92369C17.0207 9.27799 16.6794 9.61931 16.3387 9.96063C16.1946 10.1047 15.9584 10.1047 15.8137 9.96063C15.4724 9.61931 15.1311 9.27799 14.7904 8.92369C14.6463 8.79261 14.6463 8.55641 14.7904 8.41171C15.1317 8.07038 15.473 7.72906 15.8137 7.38839C15.9578 7.24433 16.194 7.24433 16.3387 7.38839C16.68 7.72971 17.0213 8.07103 17.362 8.41171C17.5067 8.55641 17.5067 8.79261 17.362 8.92369ZM29.501 16.4698C28.845 16.4698 28.1889 16.4698 27.5459 16.4698C27.2701 16.4698 27.0468 16.2465 27.0468 15.9844C27.0468 15.3283 27.0468 14.6723 27.0468 14.0156C27.0468 13.7398 27.2701 13.5166 27.5459 13.5166C28.1889 13.5166 28.845 13.5166 29.501 13.5166C29.7768 13.5166 30 13.7398 30 14.0156C30 14.6717 30 15.3277 30 15.9844C30 16.2465 29.7768 16.4698 29.501 16.4698ZM25.3934 13.6347C24.8289 13.6347 24.252 13.6347 23.6875 13.6347C23.4513 13.6347 23.2547 13.4381 23.2547 13.2019C23.2547 12.6374 23.2547 12.0605 23.2547 11.4959C23.2547 11.2597 23.4513 11.0631 23.6875 11.0631C24.252 11.0631 24.8289 11.0631 25.3934 11.0631C25.6296 11.0631 25.8263 11.2597 25.8263 11.4959C25.8263 12.0605 25.8263 12.6374 25.8263 13.2019C25.8269 13.4381 25.6296 13.6347 25.3934 13.6347ZM20.9582 12.3752C20.4728 12.3752 19.9868 12.3752 19.5014 12.3752C19.3048 12.3752 19.1471 12.2175 19.1471 12.0209C19.1471 11.5355 19.1471 11.0495 19.1471 10.5641C19.1471 10.3675 19.3048 10.1968 19.5014 10.1968C19.9868 10.1968 20.4728 10.1968 20.9582 10.1968C21.1548 10.1968 21.3255 10.3675 21.3255 10.5641C21.3255 11.0495 21.3255 11.5355 21.3255 12.0209C21.3255 12.2175 21.1548 12.3752 20.9582 12.3752ZM24.2124 26.2987C23.753 25.8392 23.2806 25.3668 22.8212 24.9074C22.6376 24.7238 22.6376 24.4084 22.8212 24.2118C23.2806 23.7524 23.753 23.28 24.2124 22.8206C24.4091 22.6369 24.7115 22.6369 24.9081 22.8206C25.3675 23.28 25.8399 23.7524 26.2993 24.2118C26.4959 24.4084 26.4959 24.7238 26.2993 24.9074C25.8399 25.3668 25.3675 25.8392 24.9081 26.2987C24.7115 26.4959 24.4091 26.4959 24.2124 26.2987ZM23.3072 21.391C22.9134 20.9842 22.5065 20.5773 22.0996 20.1704C21.9419 20.0128 21.9419 19.7376 22.0996 19.567C22.5065 19.1731 22.9134 18.7662 23.3072 18.3594C23.4779 18.1887 23.7537 18.1887 23.9243 18.3594C24.3182 18.7662 24.7251 19.1731 25.1319 19.567C25.2896 19.7376 25.2896 20.0134 25.1319 20.1704C24.7251 20.5773 24.3182 20.9842 23.9243 21.391C23.753 21.5481 23.4779 21.5481 23.3072 21.391ZM21.0627 17.362C20.7214 17.0207 20.38 16.6794 20.0394 16.3387C19.8953 16.1946 19.8953 15.9584 20.0394 15.8267C20.3807 15.4724 20.722 15.1311 21.0627 14.7898C21.2067 14.6457 21.43 14.6457 21.5747 14.7898C21.916 15.1311 22.2703 15.4724 22.6116 15.8267C22.7427 15.9578 22.7427 16.194 22.6116 16.3387C22.2703 16.68 21.916 17.0213 21.5747 17.362C21.4306 17.5061 21.2074 17.5061 21.0627 17.362ZM13.5173 29.501C13.5173 28.845 13.5173 28.1889 13.5173 27.5459C13.5173 27.2701 13.7405 27.0468 14.0163 27.0468C14.6723 27.0468 15.3283 27.0468 15.985 27.0468C16.2472 27.0468 16.4704 27.2701 16.4704 27.5459C16.4704 28.1889 16.4704 28.845 16.4704 29.501C16.4704 29.7768 16.2472 30 15.985 30C15.329 30 14.673 30 14.0163 30C13.7398 30 13.5173 29.7768 13.5173 29.501ZM16.3646 25.3935C16.3646 24.8289 16.3646 24.252 16.3646 23.6875C16.3646 23.4513 16.5483 23.2547 16.7845 23.2547C17.362 23.2547 17.9259 23.2547 18.5034 23.2547C18.7396 23.2547 18.9233 23.4513 18.9233 23.6875C18.9233 24.252 18.9233 24.8289 18.9233 25.3935C18.9233 25.6297 18.7396 25.8263 18.5034 25.8263C17.9259 25.8263 17.362 25.8263 16.7845 25.8263C16.5483 25.8263 16.3646 25.6297 16.3646 25.3935ZM17.6112 20.9576C17.6112 20.4722 17.6112 19.9862 17.6112 19.5008C17.6112 19.3042 17.7818 19.1465 17.9785 19.1465C18.4638 19.1465 18.9499 19.1465 19.4352 19.1465C19.6319 19.1465 19.7895 19.3042 19.7895 19.5008C19.7895 19.9862 19.7895 20.4722 19.7895 20.9576C19.7895 21.1542 19.6319 21.3248 19.4352 21.3248C18.9499 21.3248 18.4638 21.3248 17.9785 21.3248C17.7818 21.3255 17.6112 21.1548 17.6112 20.9576ZM3.68771 24.2124C4.16011 23.753 4.61953 23.2806 5.07895 22.8212C5.27557 22.6376 5.59093 22.6376 5.77457 22.8212C6.24697 23.2806 6.70639 23.753 7.16582 24.2124C7.36243 24.4091 7.36243 24.7244 7.16582 24.9081C6.70639 25.3675 6.24697 25.8399 5.77457 26.2993C5.59093 26.4959 5.27557 26.4959 5.07895 26.2993C4.61953 25.8399 4.16011 25.3675 3.68771 24.9081C3.50407 24.7244 3.50407 24.4091 3.68771 24.2124ZM8.60897 23.3066C9.01583 22.9127 9.40972 22.5058 9.81658 22.099C9.98724 21.9413 10.263 21.9413 10.4201 22.099C10.8269 22.5058 11.2338 22.9127 11.6277 23.3066C11.7983 23.4772 11.7983 23.753 11.6277 23.9237C11.2338 24.3176 10.8269 24.7244 10.4201 25.1313C10.2624 25.289 9.98724 25.289 9.81658 25.1313C9.40972 24.7244 9.01583 24.3176 8.60897 23.9237C8.43831 23.753 8.43831 23.4772 8.60897 23.3066ZM12.6244 21.0627C12.9787 20.7214 13.32 20.38 13.6613 20.0394C13.8054 19.8953 14.0286 19.8953 14.1733 20.0394C14.5146 20.3807 14.8559 20.722 15.1966 21.0627C15.3407 21.2067 15.3407 21.4429 15.1966 21.5747C14.8553 21.916 14.514 22.2703 14.1733 22.6116C14.0292 22.7427 13.806 22.7427 13.6613 22.6116C13.32 22.2703 12.9787 21.916 12.6244 21.5747C12.4933 21.4436 12.4933 21.2067 12.6244 21.0627Z" fill="url(#paint0_linear_11306_10462)"/>
</g>
<defs>
<linearGradient id="paint0_linear_11306_10462" x1="-9.73352e-05" y1="14.9997" x2="29.9999" y2="14.9997" gradientUnits="userSpaceOnUse">
<stop stop-color="#0194FE"/>
<stop offset="1" stop-color="#2ADFF3"/>
</linearGradient>
<clipPath id="clip0_11306_10462">
<rect width="30" height="30" fill="white"/>
</clipPath>
</defs>
</svg>

<svg xmlns="http://www.w3.org/2000/svg" fill="none" viewBox="0 0 30 30">
  <g clip-path="url(#blackfort_svg__a)">
    <path fill="url(#blackfort_svg__b)" d="M.485 13.517h1.97c.275 0 .498.223.498.499v1.968a.496.496 0 0 1-.499.486H.485A.493.493 0 0 1 0 15.984v-1.968c0-.276.223-.5.485-.5Zm4.12 2.848h1.707c.236 0 .42.183.42.42v1.718c0 .237-.184.42-.42.42H4.606a.426.426 0 0 1-.433-.42v-1.718c0-.237.197-.42.433-.42ZM9.03 17.61h1.457c.196 0 .367.17.367.367v1.457c0 .197-.17.355-.367.355H9.029a.353.353 0 0 1-.354-.355V17.98c0-.197.157-.368.354-.368ZM5.774 3.701c.472.46.932.919 1.391 1.378a.484.484 0 0 1 0 .696c-.46.472-.919.931-1.391 1.39a.484.484 0 0 1-.696 0l-1.39-1.39a.508.508 0 0 1 0-.696c.471-.46.93-.919 1.39-1.378a.483.483 0 0 1 .696 0Zm.906 4.907c.407.407.814.801 1.207 1.208a.42.42 0 0 1 0 .603c-.393.407-.8.814-1.207 1.208a.42.42 0 0 1-.604 0c-.407-.394-.8-.8-1.207-1.208a.42.42 0 0 1 0-.603l1.207-1.208a.42.42 0 0 1 .604 0Zm2.244 4.016 1.037 1.037a.357.357 0 0 1 0 .512c-.342.342-.683.683-1.037 1.024-.131.144-.368.144-.512 0l-1.024-1.024a.357.357 0 0 1 0-.512c.342-.341.683-.682 1.024-1.037.144-.13.38-.13.512 0ZM16.47.485v1.97a.496.496 0 0 1-.486.498h-1.968a.499.499 0 0 1-.5-.499V.485c0-.262.224-.485.5-.485h1.968c.263 0 .486.223.486.485Zm-2.835 4.12v1.707c0 .236-.196.42-.432.42h-1.706a.425.425 0 0 1-.433-.42V4.606c0-.236.196-.433.433-.433h1.706c.235 0 .432.197.432.433Zm-1.26 4.424v1.457a.364.364 0 0 1-.354.367h-1.457a.376.376 0 0 1-.367-.367V9.029c0-.197.17-.354.367-.354h1.457c.196 0 .354.157.354.354ZM26.3 5.774c-.46.472-.931.932-1.39 1.391a.484.484 0 0 1-.697 0c-.459-.46-.931-.919-1.39-1.391a.508.508 0 0 1 0-.696c.459-.46.931-.919 1.39-1.378a.484.484 0 0 1 .696 0c.46.46.932.919 1.391 1.378a.484.484 0 0 1 0 .696Zm-4.908.906c-.407.407-.814.814-1.22 1.207a.42.42 0 0 1-.604 0L18.359 6.68a.42.42 0 0 1 0-.604c.407-.407.814-.8 1.208-1.207a.42.42 0 0 1 .603 0c.407.407.814.8 1.221 1.207a.444.444 0 0 1 0 .604Zm-4.029 2.244c-.341.354-.683.695-1.023 1.037a.373.373 0 0 1-.525 0 74.124 74.124 0 0 1-1.024-1.037c-.144-.131-.144-.368 0-.512l1.024-1.024a.373.373 0 0 1 .525 0l1.023 1.024a.356.356 0 0 1 0 .512Zm12.139 7.546h-1.955a.496.496 0 0 1-.5-.486v-1.968a.5.5 0 0 1 .5-.5H29.5a.5.5 0 0 1 .499.5v1.968a.496.496 0 0 1-.499.486Zm-4.108-2.835h-1.706a.436.436 0 0 1-.432-.433v-1.706c0-.236.196-.433.433-.433h1.705c.237 0 .433.197.433.433v1.706a.436.436 0 0 1-.433.433Zm-4.435-1.26h-1.457a.353.353 0 0 1-.354-.354v-1.457c0-.197.158-.367.354-.367h1.457c.197 0 .368.17.368.367v1.457a.365.365 0 0 1-.368.354ZM24.212 26.3l-1.39-1.392a.508.508 0 0 1 0-.695l1.39-1.391a.508.508 0 0 1 .696 0l1.391 1.39a.484.484 0 0 1 0 .696L24.91 26.3a.483.483 0 0 1-.697 0Zm-.905-4.908a98.72 98.72 0 0 0-1.207-1.22.444.444 0 0 1 0-.604c.406-.394.813-.8 1.207-1.208.17-.17.447-.17.617 0 .394.407.801.814 1.208 1.208a.444.444 0 0 1 0 .603c-.407.407-.814.814-1.208 1.221a.463.463 0 0 1-.617 0Zm-2.244-4.029-1.024-1.023a.357.357 0 0 1 0-.512c.342-.355.683-.696 1.024-1.037a.357.357 0 0 1 .512 0c.341.341.695.682 1.037 1.037.13.13.13.367 0 .512-.342.341-.696.682-1.037 1.023a.357.357 0 0 1-.512 0Zm-7.546 12.139v-1.955a.5.5 0 0 1 .5-.5h1.968c.262 0 .485.224.485.5V29.5a.496.496 0 0 1-.485.499h-1.969a.498.498 0 0 1-.499-.499Zm2.848-4.108v-1.706c0-.236.183-.432.42-.432h1.718c.237 0 .42.196.42.433v1.706a.426.426 0 0 1-.42.432h-1.718a.426.426 0 0 1-.42-.433Zm1.246-4.435V19.5c0-.197.17-.355.367-.355h1.457c.197 0 .355.158.355.355v1.457a.364.364 0 0 1-.355.367H17.98a.375.375 0 0 1-.368-.367ZM3.688 24.212c.472-.459.932-.931 1.39-1.39a.508.508 0 0 1 .697 0c.472.459.931.931 1.39 1.39a.484.484 0 0 1 0 .696c-.459.46-.918.932-1.39 1.391a.484.484 0 0 1-.696 0c-.46-.46-.919-.931-1.391-1.39a.508.508 0 0 1 0-.697Zm4.921-.905c.407-.394.8-.801 1.208-1.208a.444.444 0 0 1 .603 0l1.208 1.208c.17.17.17.446 0 .617L10.42 25.13a.444.444 0 0 1-.603 0c-.407-.407-.801-.813-1.208-1.207a.436.436 0 0 1 0-.617Zm4.015-2.244c.355-.342.696-.683 1.037-1.024a.357.357 0 0 1 .512 0l1.024 1.024a.357.357 0 0 1 0 .512c-.342.341-.683.695-1.024 1.037a.382.382 0 0 1-.512 0c-.341-.342-.682-.696-1.037-1.037-.13-.131-.13-.368 0-.512Z"/>
  </g>
  <defs>
    <linearGradient id="blackfort_svg__b" x1="0" x2="30" y1="15" y2="15" gradientUnits="userSpaceOnUse">
      <stop stop-color="#0194FE"/>
      <stop offset="1" stop-color="#2ADFF3"/>
    </linearGradient>
    <clipPath id="blackfort_svg__a">
      <path fill="#fff" d="M0 0h30v30H0z"/>
    </clipPath>
  </defs>
</svg>
